icons/svg/numeric-2-box-outline.svg

<svg xmlns="http://www.w3.org/2000/svg" version="1.1" baseProfile="full" width="24" height="24" viewBox="0 0 24.00 24.00" xml:space="preserve"><path fill="#000" fill-opacity="1" stroke-width=".2" stroke-linejoin="round" d="M15 15h-4v-2h2c1.1 0 2-.89 2-2V9c0-1.11-.9-2-2-2H9v2h4v2h-2c-1.1 0-2 .89-2 2v4h6m4 2H5V5h14m0-2H5c-1.1 0-2 .9-2 2v14c0 1.1.9 2 2 2h14c1.1 0 2-.9 2-2V5c0-1.1-.9-2-2-2z"/></svg>

﻿<?xml version="1.0" encoding="utf-8"?>
<!DOCTYPE svg PUBLIC "-//W3C//DTD SVG 1.1//EN" "http://www.w3.org/Graphics/SVG/1.1/DTD/svg11.dtd">
<svg xmlns="http://www.w3.org/2000/svg" xmlns:xlink="http://www.w3.org/1999/xlink" version="1.1" baseProfile="full" width="24" height="24" viewBox="0 0 24.00 24.00" enable-background="new 0 0 24.00 24.00" xml:space="preserve">
	<path fill="#000000" fill-opacity="1" stroke-width="0.2" stroke-linejoin="round" d="M 15,15L 11,15L 11,13L 13,13C 14.1,13 15,12.11 15,11L 15,9C 15,7.88999 14.1,6.99999 13,6.99999L 9,6.99999L 9,9L 13,9L 13,11L 11,11C 9.9,11 9,11.89 9,13L 9,17L 15,17M 19,19L 5,19L 5,5L 19,5M 19,3L 5,3C 3.9,3 3,3.9 3,5L 3,19C 3,20.1 3.9,21 5,21L 19,21C 20.1,21 21,20.1 21,19L 21,5C 21,3.9 20.1,3 19,3 Z "/>
</svg>
